Newaita-dark/.places-manjaro/22/folder-open.svg

<svg xmlns="http://www.w3.org/2000/svg" xmlns:xlink="http://www.w3.org/1999/xlink" width="22px" height="22px" viewBox="0 0 22 22" version="1.1">
<defs>
<linearGradient id="linear0" gradientUnits="userSpaceOnUse" x1="254" y1="233.5" x2="254" y2="254.667007" gradientTransform="matrix(0.0429722,0,0,0.0429722,0,9.239313)">
<stop offset="0" style="stop-color:rgb(0%,0%,0%);stop-opacity:0.275;"/>
<stop offset="1" style="stop-color:rgb(0%,0%,0%);stop-opacity:0;"/>
</linearGradient>
<radialGradient id="radial0" gradientUnits="userSpaceOnUse" cx="450.908997" cy="189.578995" fx="450.908997" fy="189.578995" r="21.167" gradientTransform="matrix(0,-0.0537144,-0.09669,0,37.204064,43.721563)">
<stop offset="0" style="stop-color:rgb(0%,0%,0%);stop-opacity:0.314;"/>
<stop offset="0.222" style="stop-color:rgb(0%,0%,0%);stop-opacity:0.275;"/>
<stop offset="1" style="stop-color:rgb(0%,0%,0%);stop-opacity:0;"/>
</radialGradient>
<radialGradient id="radial1" gradientUnits="userSpaceOnUse" cx="450.908997" cy="189.578995" fx="450.908997" fy="189.578995" r="21.167" gradientTransform="matrix(0,0.0537144,0.09669,0,-15.373875,-5.175156)">
<stop offset="0" style="stop-color:rgb(0%,0%,0%);stop-opacity:0.314;"/>
<stop offset="0.222" style="stop-color:rgb(0%,0%,0%);stop-opacity:0.275;"/>
<stop offset="1" style="stop-color:rgb(0%,0%,0%);stop-opacity:0;"/>
</radialGradient>
<radialGradient id="radial2" gradientUnits="userSpaceOnUse" cx="450.908997" cy="189.578995" fx="450.908997" fy="189.578995" r="21.167" gradientTransform="matrix(0,-0.0537144,0.09669,0,-15.373875,43.721563)">
<stop offset="0" style="stop-color:rgb(0%,0%,0%);stop-opacity:0.314;"/>
<stop offset="0.222" style="stop-color:rgb(0%,0%,0%);stop-opacity:0.275;"/>
<stop offset="1" style="stop-color:rgb(0%,0%,0%);stop-opacity:0;"/>
</radialGradient>
<radialGradient id="radial3" gradientUnits="userSpaceOnUse" cx="450.908997" cy="189.578995" fx="450.908997" fy="189.578995" r="21.167" gradientTransform="matrix(0,0.0537144,-0.09669,0,37.204064,-5.175156)">
<stop offset="0" style="stop-color:rgb(0%,0%,0%);stop-opacity:0.314;"/>
<stop offset="0.222" style="stop-color:rgb(0%,0%,0%);stop-opacity:0.275;"/>
<stop offset="1" style="stop-color:rgb(0%,0%,0%);stop-opacity:0;"/>
</radialGradient>
<linearGradient id="linear1" gradientUnits="userSpaceOnUse" x1="960" y1="255.117996" x2="960" y2="1215.118042" gradientTransform="matrix(0.0113713,0,0,0.0113713,0,0)">
<stop offset="0" style="stop-color:rgb(34.509805%,34.509805%,34.509805%);stop-opacity:0;"/>
<stop offset="1" style="stop-color:rgb(98.039216%,98.039216%,98.039216%);stop-opacity:0.196;"/>
</linearGradient>
<linearGradient id="linear2" gradientUnits="userSpaceOnUse" x1="254" y1="106.5" x2="254" y2="-84" gradientTransform="matrix(1,0,0,1,0,0)">
<stop offset="0" style="stop-color:rgb(87.843138%,87.843138%,87.843138%);stop-opacity:1;"/>
<stop offset="1" style="stop-color:rgb(93.333334%,93.333334%,93.333334%);stop-opacity:1;"/>
</linearGradient>
<linearGradient id="linear3" gradientUnits="userSpaceOnUse" x1="960" y1="1695.118042" x2="960" y2="855.117981" gradientTransform="matrix(0.0113713,0,0,0.0113713,0,0)">
<stop offset="0" style="stop-color:rgb(34.509805%,34.509805%,34.509805%);stop-opacity:0;"/>
<stop offset="1" style="stop-color:rgb(98.039216%,98.039216%,98.039216%);stop-opacity:0.196;"/>
</linearGradient>
</defs>
<g id="surface1">
<path style=" stroke:none;fill-rule:nonzero;fill:url(#linear0);" d="M 2.730469 19.273438 L 19.101562 19.273438 L 19.101562 20.183594 L 2.726562 20.183594 Z M 2.730469 19.273438 "/>
<path style=" stroke:none;fill-rule:nonzero;fill:url(#radial0);" d="M 19.101562 19.273438 L 20.921875 19.273438 L 20.921875 18.363281 L 19.101562 18.363281 Z M 19.101562 19.273438 "/>
<path style=" stroke:none;fill-rule:nonzero;fill:url(#radial1);" d="M 2.730469 19.273438 L 0.910156 19.273438 L 0.910156 20.183594 L 2.726562 20.183594 Z M 2.730469 19.273438 "/>
<path style=" stroke:none;fill-rule:nonzero;fill:url(#radial2);" d="M 2.730469 19.273438 L 0.910156 19.273438 L 0.910156 18.363281 L 2.726562 18.363281 Z M 2.730469 19.273438 "/>
<path style=" stroke:none;fill-rule:nonzero;fill:url(#radial3);" d="M 19.101562 19.273438 L 20.921875 19.273438 L 20.921875 20.183594 L 19.101562 20.183594 Z M 19.101562 19.273438 "/>
<path style=" stroke:none;fill-rule:nonzero;fill:rgb(25.882354%,25.882354%,25.882354%);fill-opacity:1;" d="M 5.003906 2.902344 C 4.761719 2.898438 4.53125 2.996094 4.359375 3.167969 C 4.1875 3.335938 4.09375 3.570312 4.09375 3.8125 L 4.09375 4.71875 L 1.820312 4.71875 C 1.578125 4.71875 1.347656 4.816406 1.175781 4.984375 C 1.003906 5.15625 0.910156 5.386719 0.910156 5.628906 L 0.910156 12.90625 C 0.910156 13.148438 1.003906 13.378906 1.175781 13.550781 C 1.347656 13.71875 1.578125 13.816406 1.820312 13.816406 L 20.011719 13.816406 C 20.253906 13.816406 20.484375 13.71875 20.65625 13.550781 C 20.824219 13.378906 20.921875 13.148438 20.921875 12.90625 L 20.921875 5.628906 C 20.921875 5.398438 20.835938 5.1875 20.695312 5.027344 L 20.695312 3.808594 C 20.695312 3.570312 20.597656 3.335938 20.425781 3.164062 C 20.257812 2.996094 20.023438 2.898438 19.78125 2.898438 Z M 5.003906 2.902344 "/>
<path style=" stroke:none;fill-rule:nonzero;fill:url(#linear1);" d="M 5.003906 2.902344 C 4.761719 2.898438 4.53125 2.996094 4.359375 3.167969 C 4.1875 3.335938 4.09375 3.570312 4.09375 3.8125 L 4.09375 4.71875 L 1.820312 4.71875 C 1.578125 4.71875 1.347656 4.816406 1.175781 4.984375 C 1.003906 5.15625 0.910156 5.386719 0.910156 5.628906 L 0.910156 12.90625 C 0.910156 13.148438 1.003906 13.378906 1.175781 13.550781 C 1.347656 13.71875 1.578125 13.816406 1.820312 13.816406 L 20.011719 13.816406 C 20.253906 13.816406 20.484375 13.71875 20.65625 13.550781 C 20.824219 13.378906 20.921875 13.148438 20.921875 12.90625 L 20.921875 5.628906 C 20.921875 5.398438 20.835938 5.1875 20.695312 5.027344 L 20.695312 3.808594 C 20.695312 3.570312 20.597656 3.335938 20.425781 3.164062 C 20.257812 2.996094 20.023438 2.898438 19.78125 2.898438 Z M 5.003906 2.902344 "/>
<path style="fill-rule:nonzero;fill:url(#linear2);stroke-width:3;stroke-linecap:round;stroke-linejoin:miter;stroke:rgb(12.941177%,12.941177%,12.941177%);stroke-opacity:1;stroke-miterlimit:4;" d="M 52.904859 -84.017282 L 455.05451 -84.017282 C 460.963128 -84.017282 465.690022 -79.290387 465.690022 -73.381769 L 465.690022 95.87742 C 465.690022 101.786038 460.963128 106.512933 455.05451 106.512933 L 52.904859 106.512933 C 47.087143 106.512933 42.360248 101.786038 42.360248 95.87742 L 42.360248 -73.381769 C 42.360248 -79.290387 47.087143 -84.017282 52.904859 -84.017282 Z M 52.904859 -84.017282 " transform="matrix(0.0429722,0,0,0.0429722,0,9.239313)"/>
<path style=" stroke:none;fill-rule:nonzero;fill:rgb(90.196079%,90.196079%,90.196079%);fill-opacity:0.588;" d="M 5.003906 2.902344 C 4.761719 2.898438 4.53125 2.996094 4.359375 3.167969 C 4.1875 3.335938 4.09375 3.570312 4.09375 3.8125 L 4.09375 3.921875 C 4.09375 3.683594 4.1875 3.449219 4.359375 3.28125 C 4.53125 3.109375 4.761719 3.015625 5.003906 3.015625 L 19.78125 3.015625 C 20.023438 3.015625 20.257812 3.109375 20.425781 3.28125 C 20.597656 3.449219 20.695312 3.683594 20.691406 3.921875 L 20.691406 3.8125 C 20.695312 3.570312 20.597656 3.335938 20.425781 3.167969 C 20.257812 2.996094 20.023438 2.898438 19.78125 2.898438 Z M 5.003906 2.902344 "/>
<path style=" stroke:none;fill-rule:nonzero;fill:rgb(12.941177%,12.941177%,12.941177%);fill-opacity:1;" d="M 5.003906 2.835938 C 4.464844 2.835938 4.027344 3.273438 4.027344 3.8125 L 4.027344 4.65625 L 1.820312 4.65625 C 1.5625 4.65625 1.3125 4.757812 1.128906 4.941406 C 0.949219 5.121094 0.84375 5.371094 0.84375 5.628906 L 0.84375 12.90625 C 0.84375 13.164062 0.949219 13.414062 1.128906 13.59375 C 1.3125 13.777344 1.5625 13.878906 1.820312 13.878906 L 20.011719 13.878906 C 20.269531 13.878906 20.515625 13.777344 20.699219 13.59375 C 20.882812 13.414062 20.984375 13.164062 20.984375 12.90625 L 20.984375 5.628906 C 20.984375 5.402344 20.90625 5.179688 20.757812 5.003906 L 20.757812 3.8125 C 20.757812 3.273438 20.320312 2.835938 19.78125 2.835938 Z M 5.003906 2.964844 L 19.78125 2.964844 C 20.007812 2.964844 20.222656 3.050781 20.382812 3.210938 C 20.539062 3.371094 20.628906 3.585938 20.628906 3.808594 L 20.628906 5.050781 L 20.644531 5.070312 C 20.777344 5.21875 20.855469 5.414062 20.855469 5.628906 L 20.855469 12.90625 C 20.855469 13.132812 20.769531 13.347656 20.609375 13.503906 C 20.449219 13.664062 20.234375 13.753906 20.011719 13.75 L 1.820312 13.75 C 1.59375 13.753906 1.378906 13.664062 1.21875 13.503906 C 1.0625 13.347656 0.972656 13.132812 0.972656 12.90625 L 0.972656 5.628906 C 0.972656 5.40625 1.0625 5.1875 1.21875 5.03125 C 1.378906 4.871094 1.59375 4.785156 1.820312 4.785156 L 4.15625 4.785156 L 4.15625 3.8125 C 4.15625 3.585938 4.246094 3.371094 4.402344 3.210938 C 4.5625 3.050781 4.777344 2.964844 5.003906 2.964844 Z M 5.003906 2.964844 "/>
<path style=" stroke:none;fill-rule:nonzero;fill:rgb(10.196079%,73.725492%,61.176473%);fill-opacity:1;" d="M 1.820312 8.8125 C 1.578125 8.8125 1.347656 8.90625 1.175781 9.078125 C 1.003906 9.25 0.910156 9.480469 0.910156 9.722656 L 0.910156 18.363281 C 0.910156 18.605469 1.003906 18.835938 1.175781 19.007812 C 1.347656 19.175781 1.578125 19.273438 1.820312 19.273438 L 20.011719 19.273438 C 20.253906 19.273438 20.484375 19.175781 20.65625 19.007812 C 20.824219 18.835938 20.921875 18.605469 20.921875 18.363281 L 20.921875 9.722656 L 8.640625 9.722656 C 8.398438 9.722656 8.167969 9.628906 7.996094 9.457031 C 7.828125 9.285156 7.730469 9.054688 7.730469 8.8125 Z M 1.820312 8.8125 "/>
<path style=" stroke:none;fill-rule:nonzero;fill:rgb(0%,0%,0%);fill-opacity:0.196;" d="M 1.820312 19.273438 C 1.578125 19.273438 1.347656 19.175781 1.175781 19.007812 C 1.003906 18.835938 0.910156 18.605469 0.910156 18.363281 L 0.910156 18.25 C 0.910156 18.492188 1.003906 18.722656 1.175781 18.894531 C 1.347656 19.066406 1.578125 19.160156 1.820312 19.160156 L 20.011719 19.160156 C 20.253906 19.160156 20.484375 19.066406 20.65625 18.894531 C 20.824219 18.722656 20.921875 18.492188 20.921875 18.25 L 20.921875 18.363281 C 20.921875 18.605469 20.824219 18.835938 20.65625 19.007812 C 20.484375 19.175781 20.253906 19.273438 20.011719 19.273438 Z M 1.820312 19.273438 "/>
<path style=" stroke:none;fill-rule:nonzero;fill:rgb(90.196079%,90.196079%,90.196079%);fill-opacity:0.937;" d="M 1.820312 8.8125 C 1.578125 8.8125 1.347656 8.90625 1.175781 9.078125 C 1.003906 9.25 0.910156 9.480469 0.910156 9.722656 L 0.910156 9.835938 C 0.910156 9.59375 1.003906 9.363281 1.175781 9.191406 C 1.347656 9.023438 1.578125 8.925781 1.820312 8.925781 L 7.730469 8.925781 L 7.730469 8.8125 Z M 1.820312 8.8125 "/>
<path style=" stroke:none;fill-rule:nonzero;fill:rgb(90.196079%,90.196079%,90.196079%);fill-opacity:0.937;" d="M 8.640625 9.835938 C 8.398438 9.835938 8.167969 9.742188 7.996094 9.570312 C 7.828125 9.398438 7.730469 9.167969 7.730469 8.925781 L 7.730469 8.8125 C 7.730469 9.054688 7.828125 9.285156 7.996094 9.457031 C 8.167969 9.628906 8.398438 9.722656 8.640625 9.722656 L 20.976562 9.722656 L 20.976562 9.835938 Z M 8.640625 9.835938 "/>
<path style=" stroke:none;fill-rule:nonzero;fill:url(#linear3);" d="M 1.820312 8.8125 C 1.578125 8.8125 1.347656 8.90625 1.175781 9.078125 C 1.003906 9.25 0.910156 9.480469 0.910156 9.722656 L 0.910156 18.363281 C 0.910156 18.605469 1.003906 18.835938 1.175781 19.007812 C 1.347656 19.175781 1.578125 19.273438 1.820312 19.273438 L 20.011719 19.273438 C 20.253906 19.273438 20.484375 19.175781 20.65625 19.007812 C 20.824219 18.835938 20.921875 18.605469 20.921875 18.363281 L 20.921875 9.722656 L 8.640625 9.722656 C 8.398438 9.722656 8.167969 9.628906 7.996094 9.457031 C 7.828125 9.285156 7.730469 9.054688 7.730469 8.8125 Z M 1.820312 8.8125 "/>
<path style=" stroke:none;fill-rule:nonzero;fill:rgb(12.941177%,12.941177%,12.941177%);fill-opacity:1;" d="M 1.820312 8.75 C 1.28125 8.75 0.84375 9.183594 0.84375 9.722656 L 0.84375 18.363281 C 0.84375 18.621094 0.949219 18.871094 1.128906 19.050781 C 1.3125 19.234375 1.5625 19.335938 1.820312 19.335938 L 20.011719 19.335938 C 20.269531 19.335938 20.515625 19.234375 20.699219 19.050781 C 20.882812 18.871094 20.984375 18.621094 20.984375 18.363281 L 20.984375 9.660156 L 8.640625 9.660156 C 8.417969 9.660156 8.199219 9.570312 8.042969 9.410156 C 7.882812 9.253906 7.796875 9.039062 7.796875 8.8125 L 7.796875 8.75 Z M 1.820312 8.878906 L 7.671875 8.878906 C 7.703125 9.390625 8.128906 9.789062 8.640625 9.789062 L 20.855469 9.789062 L 20.855469 18.363281 C 20.855469 18.589844 20.769531 18.804688 20.609375 18.960938 C 20.449219 19.121094 20.234375 19.210938 20.011719 19.207031 L 1.820312 19.207031 C 1.59375 19.210938 1.378906 19.121094 1.21875 18.960938 C 1.0625 18.804688 0.972656 18.589844 0.972656 18.363281 L 0.972656 9.722656 C 0.972656 9.5 1.0625 9.28125 1.21875 9.125 C 1.378906 8.964844 1.59375 8.875 1.820312 8.878906 Z M 1.820312 8.878906 "/>
</g>
</svg>

<svg xmlns="http://www.w3.org/2000/svg" width="22pt" height="22pt" viewBox="0 0 22 22"><defs><linearGradient id="a" gradientUnits="userSpaceOnUse" x1="254" y1="233.5" x2="254" y2="254.667" gradientTransform="matrix(.04297 0 0 .04297 0 9.24)"><stop offset="0" stop-opacity=".275"/><stop offset="1" stop-opacity="0"/></linearGradient><radialGradient id="b" gradientUnits="userSpaceOnUse" cx="450.909" cy="189.579" fx="450.909" fy="189.579" r="21.167" gradientTransform="matrix(0 -.05372 -.09669 0 37.204 43.722)"><stop offset="0" stop-opacity=".314"/><stop offset=".222" stop-opacity=".275"/><stop offset="1" stop-opacity="0"/></radialGradient><radialGradient id="c" gradientUnits="userSpaceOnUse" cx="450.909" cy="189.579" fx="450.909" fy="189.579" r="21.167" gradientTransform="matrix(0 .05372 .09669 0 -15.374 -5.175)"><stop offset="0" stop-opacity=".314"/><stop offset=".222" stop-opacity=".275"/><stop offset="1" stop-opacity="0"/></radialGradient><radialGradient id="d" gradientUnits="userSpaceOnUse" cx="450.909" cy="189.579" fx="450.909" fy="189.579" r="21.167" gradientTransform="matrix(0 -.05372 .09669 0 -15.374 43.722)"><stop offset="0" stop-opacity=".314"/><stop offset=".222" stop-opacity=".275"/><stop offset="1" stop-opacity="0"/></radialGradient><radialGradient id="e" gradientUnits="userSpaceOnUse" cx="450.909" cy="189.579" fx="450.909" fy="189.579" r="21.167" gradientTransform="matrix(0 .05372 -.09669 0 37.204 -5.175)"><stop offset="0" stop-opacity=".314"/><stop offset=".222" stop-opacity=".275"/><stop offset="1" stop-opacity="0"/></radialGradient><linearGradient id="f" gradientUnits="userSpaceOnUse" x1="960" y1="255.118" x2="960" y2="1215.118" gradientTransform="rotate(.24) scale(.01137)"><stop offset="0" stop-color="#585858" stop-opacity="0"/><stop offset="1" stop-color="#fafafa" stop-opacity=".196"/></linearGradient><linearGradient id="g" gradientUnits="userSpaceOnUse" x1="254" y1="106.5" x2="254" y2="-84"><stop offset="0" stop-color="#e0e0e0"/><stop offset="1" stop-color="#eee"/></linearGradient><linearGradient id="h" gradientUnits="userSpaceOnUse" x1="960" y1="1695.118" x2="960" y2="855.118" gradientTransform="rotate(.24) scale(.01137)"><stop offset="0" stop-color="#585858" stop-opacity="0"/><stop offset="1" stop-color="#fafafa" stop-opacity=".196"/></linearGradient></defs><path d="M2.73 19.273h16.372v.91H2.73zm0 0" fill="url(#a)"/><path d="M19.102 19.273h1.82v-.91h-1.82zm0 0" fill="url(#b)"/><path d="M2.73 19.273H.91v.91h1.82zm0 0" fill="url(#c)"/><path d="M2.73 19.273H.91v-.91h1.82zm0 0" fill="url(#d)"/><path d="M19.102 19.273h1.82v.91h-1.82zm0 0" fill="url(#e)"/><path d="M5.004 2.902a.905.905 0 0 0-.91.907v.91H1.82a.909.909 0 0 0-.91.91v7.277c0 .504.406.91.91.91h18.192c.504 0 .91-.406.91-.91V5.63a.894.894 0 0 0-.23-.602V3.81a.902.902 0 0 0-.907-.907zm0 0" fill="#424242"/><path d="M5.004 2.902a.905.905 0 0 0-.91.907v.91H1.82a.909.909 0 0 0-.91.91v7.277c0 .504.406.91.91.91h18.192c.504 0 .91-.406.91-.91V5.63a.894.894 0 0 0-.23-.602V3.81a.902.902 0 0 0-.907-.907zm0 0" fill="url(#f)"/><path d="M52.904-84.013h402.143a10.591 10.591 0 0 1 10.636 10.636V95.879a10.591 10.591 0 0 1-10.636 10.636H52.904c-5.818 0-10.544-4.727-10.544-10.636V-73.377c0-5.909 4.726-10.636 10.544-10.636zm0 0" transform="matrix(.04297 0 0 .04297 0 9.24)" fill="url(#g)" stroke-width="3" stroke-linecap="round" stroke="#212121"/><path d="M5.004 2.902a.905.905 0 0 0-.91.907v.117c0-.504.406-.91.91-.91h14.781c.504 0 .906.406.906.91v-.117a.902.902 0 0 0-.906-.907zm0 0" fill="#e6e6e6" fill-opacity=".588"/><path d="M5.004 2.836a.976.976 0 0 0-.977.973v.847H1.82a.974.974 0 0 0-.976.973v7.277c0 .54.437.973.976.973h18.192a.97.97 0 0 0 .972-.973V5.63a.972.972 0 0 0-.226-.625V3.809a.975.975 0 0 0-.973-.973zm0 .129h14.781a.84.84 0 0 1 .844.844V5.05l.016.02c.132.148.21.343.21.558v7.277a.84.84 0 0 1-.843.844H1.82a.844.844 0 0 1-.847-.844V5.63c0-.469.379-.844.847-.844h2.336V3.81c0-.47.38-.844.848-.844zm0 0" fill="#212121"/><path d="M1.82 8.813a.909.909 0 0 0-.91.91v8.64c0 .504.406.91.91.91h18.192c.504 0 .91-.406.91-.91v-8.64H8.64a.909.909 0 0 1-.91-.91zm0 0" fill="#1abc9c"/><path d="M1.82 19.273a.909.909 0 0 1-.91-.91v-.113c0 .504.406.91.91.91h18.192c.504 0 .91-.406.91-.91v.113c0 .504-.406.91-.91.91zm0 0" fill-opacity=".196"/><path d="M1.82 8.813a.909.909 0 0 0-.91.91v.113c0-.504.406-.91.91-.91h5.91v-.114zm0 0" fill="#e6e6e6" fill-opacity=".937"/><path d="M8.64 9.836a.909.909 0 0 1-.91-.91v-.114c0 .504.407.91.91.91h12.337v.114zm0 0" fill="#e6e6e6" fill-opacity=".937"/><path d="M1.82 8.813a.909.909 0 0 0-.91.91v8.64c0 .504.406.91.91.91h18.192c.504 0 .91-.406.91-.91v-8.64H8.64a.909.909 0 0 1-.91-.91zm0 0" fill="url(#h)"/><path d="M1.82 8.75a.974.974 0 0 0-.976.973v8.64c0 .54.437.973.976.973h18.192a.97.97 0 0 0 .972-.973V9.656H8.641a.84.84 0 0 1-.844-.844V8.75zm0 .129h5.852a.967.967 0 0 0 .969.906h12.214v8.578a.84.84 0 0 1-.843.844H1.82a.844.844 0 0 1-.847-.844v-8.64c0-.47.379-.844.847-.844zm0 0" fill="#212121"/></svg>
